brandFactory_export/3.Masa/Interes me gusta_3Masa.svg

<?xml version="1.0" encoding="UTF-8"?>
<svg width="24px" height="24px" viewBox="0 0 24 24" version="1.1" xmlns="http://www.w3.org/2000/svg" xmlns:xlink="http://www.w3.org/1999/xlink">
    <title>3.Masa/Interes me gusta_3Masa</title>
    <g id="Symbols" stroke="none" stroke-width="1" fill="none" fill-rule="evenodd">
        <g id="3.Masa/Interes-me-gusta_3Masa" fill="#5CB615" fill-rule="nonzero">
            <path d="M16.107563,8.89915966 C15.8756303,9.84369748 15.4252101,10.8252101 14.7663866,11.8134454 C14.2453782,12.5932773 13.8285714,13.1008403 13.1226891,13.8067227 L13.1058824,13.8235294 C13.0352941,13.8907563 12.7966387,14.1294118 12.5882353,14.2739496 C12.410084,14.3983193 12.2117647,14.4823529 12.0134454,14.5260504 C11.9563025,14.5394958 11.8957983,14.5495798 11.8319328,14.5529412 L11.8252101,14.5529412 C11.8084034,14.5529412 11.7915966,14.5563025 11.7714286,14.5563025 L11.7546218,14.5563025 C11.7378151,14.5563025 11.7176471,14.5563025 11.7008403,14.5529412 L11.6941176,14.5529412 C11.6302521,14.5495798 11.5697479,14.5394958 11.512605,14.5260504 C11.3142857,14.4857143 11.112605,14.3983193 10.9344538,14.2739496 C10.7294118,14.1294118 10.487395,13.8907563 10.4168067,13.8235294 C9.70084034,13.107563 9.28067227,12.6 8.75630252,11.8134454 C8.10084034,10.8252101 7.65042017,9.84369748 7.41512605,8.89915966 C7.16302521,7.87058824 7.37142857,7.01680672 8.00336134,6.49243697 C8.3697479,6.18655462 8.86722689,6.00504202 9.40504202,5.97815126 C9.45210084,5.97478992 9.50252101,5.97478992 9.54957983,5.97478992 C9.5697479,5.97478992 9.59327731,5.98151261 9.61344538,5.98151261 C9.8487395,5.98823529 10.0806723,6.01512605 10.312605,6.07563025 C10.3394958,6.08235294 10.3630252,6.09243697 10.3865546,6.09915966 C10.6319328,6.1697479 10.8773109,6.2605042 11.1092437,6.38487395 C11.2941176,6.48571429 11.4857143,6.59327731 11.697479,6.71092437 C11.7176471,6.7210084 11.7411765,6.72773109 11.7647059,6.72773109 C11.7882353,6.72773109 11.8117647,6.7210084 11.8319328,6.71092437 C12.0403361,6.58991597 12.2352941,6.48571429 12.4201681,6.38151261 C12.6521008,6.25714286 12.8941176,6.16638655 13.1394958,6.09579832 C13.1663866,6.08907563 13.189916,6.0789916 13.2168067,6.07226891 C13.4487395,6.01176471 13.6840336,5.98487395 13.9159664,5.97815126 C13.9361345,5.97815126 13.9596639,5.97142857 13.9798319,5.97142857 C14.0268908,5.97142857 14.0773109,5.97142857 14.1243697,5.97478992 C14.6621849,6.00168067 15.1630252,6.18319328 15.5294118,6.48907563 C16.1546218,7.01680672 16.3596639,7.87058824 16.107563,8.89915966 M19.8588235,1.01008403 L3.76470588,1.01008403 C1.6907563,1.01008403 0,2.63697479 0,4.63697479 L0,15.389916 C0,17.0067227 1.01512605,18.3747899 2.51764706,18.8453782 L2.51764706,21.0806723 C2.51764706,21.9411765 3.28739496,22.6638655 4.19495798,22.6638655 C4.75966387,22.6638655 5.22689076,22.4285714 5.58319328,21.9747899 L7.9697479,19.0201681 L19.8621849,19.0201681 C21.9361345,19.0201681 23.6268908,17.3932773 23.6268908,15.389916 L23.6268908,4.63697479 C23.6235294,2.63697479 21.9361345,1.01008403 19.8588235,1.01008403" id="Interes-me-gusta_3Masa"></path>
        </g>
    </g>
</svg>

<svg width="24" height="24" viewBox="0 0 24 24" xmlns="http://www.w3.org/2000/svg"><path d="M16.108 8.9c-.232.944-.683 1.925-1.342 2.913-.52.78-.937 1.288-1.643 1.994l-.017.017c-.07.067-.31.305-.518.45a1.617 1.617 0 01-.575.252 1.026 1.026 0 01-.181.027h-.007c-.017 0-.033.003-.054.003h-.016c-.017 0-.037 0-.054-.003h-.007a1.574 1.574 0 01-.76-.279c-.205-.145-.447-.383-.517-.45-.716-.716-1.136-1.224-1.66-2.01-.656-.989-1.107-1.97-1.342-2.915-.252-1.028-.044-1.882.588-2.407.367-.305.864-.487 1.402-.514.047-.003.098-.003.145-.003.02 0 .043.007.063.007.236.006.468.033.7.094.026.006.05.016.074.023.245.07.49.162.722.286.185.1.377.208.588.326.02.01.044.017.068.017a.153.153 0 00.067-.017c.208-.121.403-.225.588-.33.232-.124.474-.215.72-.285.026-.007.05-.017.077-.024.232-.06.467-.087.699-.094.02 0 .044-.007.064-.007.047 0 .097 0 .144.004.538.027 1.039.208 1.405.514.626.528.83 1.382.579 2.41m3.75-7.889H3.766C1.69 1.01 0 2.637 0 4.637V15.39c0 1.617 1.015 2.985 2.518 3.455v2.236c0 .86.77 1.583 1.677 1.583.565 0 1.032-.235 1.388-.69L7.97 19.02h11.892c2.074 0 3.765-1.627 3.765-3.63V4.637c-.003-2-1.69-3.627-3.768-3.627" fill="#5CB615" fill-rule="nonzero"/></svg>
